assets/images/icons/email_icon.svg

<svg fill="none" height="56" viewBox="0 0 56 56" width="56" xmlns="http://www.w3.org/2000/svg"><path d="m49.1597 8.99121h-42.31942c-3.77156 0-6.84028 3.06869-6.84028 6.84029v24.337c0 3.7716 3.06872 6.8403 6.84028 6.8403h42.31942c3.7716 0 6.8403-3.0687 6.8403-6.8403v-24.3363c.0007-3.7723-3.068-6.84099-6.8403-6.84099zm-3.3424 4.46249-17.8173 11.4791-17.8173-11.4791zm3.3424 29.0933h-42.31942c-1.31123 0-2.37777-1.0673-2.37777-2.3777v-24.2106l22.16079 14.2502c.0298.0186.0617.0313.0922.0484.032.0178.0647.0349.0975.0513.1718.0885.3488.1599.5295.2068.0186.0052.0372.0074.0558.0119.1986.0468.3994.0758.6002.0758h.0015.003c.2008 0 .4016-.0282.6002-.0758.0186-.0045.0372-.0067.0558-.0119.1807-.0469.357-.1183.5295-.2068.0327-.0164.0655-.0335.0974-.0513.0305-.0171.0625-.0298.0923-.0484l22.1608-14.2502v24.2098c-.0008 1.3112-1.068 2.3785-2.3793 2.3785z" fill="#000"/></svg>

<svg width="56" height="56" viewBox="0 0 56 56" fill="none" xmlns="http://www.w3.org/2000/svg">
<path d="M49.1597 8.99121H6.84028C3.06872 8.99121 0 12.0599 0 15.8315V40.1685C0 43.9401 3.06872 47.0088 6.84028 47.0088H49.1597C52.9313 47.0088 56 43.9401 56 40.1685V15.8322C56.0007 12.0599 52.932 8.99121 49.1597 8.99121ZM45.8173 13.4537L28 24.9328L10.1827 13.4537H45.8173ZM49.1597 42.547H6.84028C5.52905 42.547 4.46251 41.4797 4.46251 40.1693V15.9587L26.6233 30.2089C26.6531 30.2275 26.685 30.2402 26.7155 30.2573C26.7475 30.2751 26.7802 30.2922 26.813 30.3086C26.9848 30.3971 27.1618 30.4685 27.3425 30.5154C27.3611 30.5206 27.3797 30.5228 27.3983 30.5273C27.5969 30.5741 27.7977 30.6031 27.9985 30.6031C27.9993 30.6031 28 30.6031 28 30.6031C28.0015 30.6031 28.0022 30.6031 28.003 30.6031C28.2038 30.6031 28.4046 30.5749 28.6032 30.5273C28.6218 30.5228 28.6404 30.5206 28.659 30.5154C28.8397 30.4685 29.016 30.3971 29.1885 30.3086C29.2212 30.2922 29.254 30.2751 29.2859 30.2573C29.3164 30.2402 29.3484 30.2275 29.3782 30.2089L51.539 15.9587V40.1685C51.5382 41.4797 50.471 42.547 49.1597 42.547Z" fill="black"/>
</svg>
